packages/core/src/svgs/tokens/branded/MORK.svg

<svg width="24" height="24" viewBox="0 0 24 24" fill="none" xmlns="http://www.w3.org/2000/svg">
<path d="M14.3048 3.38889C14.7492 3.53334 15.3658 3.67222 15.788 3.87779C17.0809 4.47957 18.2092 5.38487 19.077 6.51661C19.9446 7.64834 20.526 8.973 20.7714 10.3778C21.1048 12.5 20.7269 14.4889 19.6436 16.3389C19.625 16.3711 19.5983 16.3978 19.5662 16.4163C19.5339 16.4349 19.4975 16.4446 19.4603 16.4445H17.0825L17.0603 16.4333C17.0536 16.4283 17.0485 16.4214 17.0455 16.4135C17.0426 16.4057 17.0419 16.3971 17.0436 16.3888C17.7536 15.6261 18.2757 14.7082 18.5687 13.7081C18.8617 12.708 18.9173 11.6535 18.7311 10.6281C18.5451 9.60286 18.1224 8.63507 17.4968 7.80175C16.8711 6.96842 16.0596 6.29253 15.1269 5.82778C14.1729 5.34267 13.1193 5.08591 12.0492 5.07779C12.0359 5.07779 12.0232 5.07252 12.0138 5.06314C12.0044 5.05377 11.9992 5.04105 11.9992 5.02779V2.25C11.9992 2.08334 12.0825 2 12.2491 2H13.9436C14.1381 2 14.2214 2.09445 14.2214 2.28334V3.28333C14.2214 3.33335 14.2547 3.36667 14.3048 3.38334V3.38889ZM9.68245 20.5944C9.26028 20.4389 8.64361 20.3056 8.23806 20.1112C7.12407 19.5907 6.13019 18.8447 5.31923 17.9206C4.50828 16.9963 3.89788 15.9139 3.52664 14.7416C3.15541 13.5694 3.03139 12.333 3.16246 11.1105C3.29352 9.88779 3.67679 8.70577 4.28805 7.63889C4.3027 7.61355 4.32375 7.5925 4.3491 7.57786C4.37446 7.56324 4.40322 7.55554 4.43249 7.55557H6.78806C6.79773 7.55673 6.80695 7.56043 6.81474 7.56628C6.82254 7.57213 6.82867 7.57992 6.8325 7.5889C6.8372 7.59766 6.83919 7.60763 6.8382 7.61753C6.8372 7.62742 6.83329 7.63679 6.82695 7.64445C5.80358 8.82714 5.22071 10.3274 5.17717 11.8907C5.13362 13.4542 5.63209 14.9844 6.58806 16.2223C7.21505 17.0365 8.01668 17.6997 8.93391 18.1631C9.85109 18.6265 10.8607 18.8784 11.8881 18.9C11.9326 18.9 11.9992 18.9389 11.9992 18.989V21.789C11.9992 21.8444 11.9492 21.9001 11.9103 21.9389C11.8697 21.9774 11.8162 21.9992 11.7603 22H10.0492C9.85472 22 9.77137 21.9056 9.77695 21.7112V20.7111C9.77695 20.6612 9.72133 20.6111 9.68245 20.6V20.5944Z" fill="#1C1C1B"/>
<path fill-rule="evenodd" clip-rule="evenodd" d="M16.5994 13.1112L15.7104 13.0055V12.9945L15.7216 12.9612L15.7383 12.95L16.6827 12.8722C16.7171 12.8693 16.7498 12.8559 16.7765 12.8341C16.8032 12.8124 16.8228 12.7831 16.8328 12.75C17.0715 12.0722 17.2382 11.2389 17.1104 10.5389C17.0495 10.1603 16.906 9.79976 16.6899 9.48282C16.4738 9.16598 16.1907 8.9006 15.8605 8.70556C15.4608 8.47522 15.0072 8.35444 14.5458 8.35541C14.0845 8.3564 13.6316 8.47909 13.2327 8.71112C12.8399 8.94496 12.5147 9.2768 12.2887 9.67415C12.0628 10.0715 11.9439 10.5206 11.9438 10.9778C11.9449 11.5931 11.7259 12.1884 11.3264 12.6563C10.9268 13.1242 10.3731 13.4338 9.76522 13.5291C9.15733 13.6244 8.53545 13.499 8.0119 13.1758C7.48835 12.8525 7.09769 12.3528 6.91048 11.7666C6.89299 11.7101 6.87258 11.6545 6.84937 11.6001C6.77714 11.4499 6.76048 11.4555 6.79381 11.6222C6.98702 13.002 7.70551 14.2538 8.79936 15.1167C8.80781 15.1339 8.81164 15.1531 8.81048 15.1723L8.66604 16.4167C8.64381 16.6056 8.72158 16.7167 8.91048 16.75C9.29937 16.8222 9.72711 16.8722 10.1882 16.9167C10.5494 16.9389 10.5605 16.5334 10.5661 16.2556V16.1501C10.5771 16.0278 10.6383 15.9834 10.7605 16.0111L10.8605 16.0388C10.9494 16.0611 10.9994 16.1166 10.9994 16.2111V16.3445C10.9883 16.5889 10.9771 16.9055 11.2938 16.9111H12.6605C12.6924 16.9111 12.7239 16.9048 12.7532 16.8925C12.7826 16.88 12.8092 16.862 12.8314 16.8392C12.8536 16.8165 12.8711 16.7894 12.8828 16.7598C12.8945 16.7302 12.9001 16.6985 12.8994 16.6666V16.2223C12.8994 16.1222 12.9549 16.0611 13.0438 16.0444L13.2271 16.0055C13.3105 15.9945 13.3605 16.0278 13.3771 16.1056L13.5161 16.7444C13.5225 16.7755 13.5352 16.805 13.5535 16.831C13.5718 16.8569 13.5951 16.879 13.6222 16.8956C13.6492 16.9123 13.6794 16.9232 13.7108 16.9277C13.7423 16.9324 13.7743 16.9304 13.8049 16.9223L15.166 16.5444C15.2248 16.5275 15.2749 16.4888 15.3059 16.436C15.3368 16.3833 15.3464 16.3207 15.3327 16.2612L15.0828 15.2222C15.0749 15.1921 15.0759 15.1602 15.0857 15.1307C15.0956 15.1011 15.1139 15.075 15.1382 15.0556C15.7946 14.5635 16.3162 13.9138 16.6549 13.1666C16.6553 13.1567 16.6528 13.1467 16.6479 13.1379C16.6431 13.129 16.6359 13.1217 16.6272 13.1167C16.6185 13.1124 16.6089 13.1105 16.5994 13.1112ZM15.3215 11.7222C15.4722 11.5689 15.5742 11.3746 15.615 11.1637C15.6559 10.9528 15.6338 10.7345 15.5515 10.5361C15.4692 10.3376 15.3302 10.1678 15.152 10.0477C14.9737 9.92771 14.7643 9.86289 14.5493 9.86108C14.4062 9.86108 14.2644 9.88947 14.1322 9.94469C14.0001 9.99978 13.8802 10.0805 13.7793 10.1823C13.6786 10.2841 13.599 10.4049 13.5454 10.5376C13.4916 10.6704 13.4646 10.8123 13.466 10.9555C13.4674 11.2429 13.5819 11.5183 13.7846 11.7219C13.9873 11.9257 14.2619 12.0416 14.5493 12.0444C14.8383 12.0444 15.1161 11.9333 15.3215 11.7277V11.7222Z" fill="#007295"/>
<path d="M14.6325 11.5166C14.9547 11.4666 15.1769 11.1832 15.1324 10.8777C15.1204 10.8031 15.0936 10.7317 15.0538 10.6675C15.0138 10.6034 14.9617 10.5477 14.9003 10.5039C14.8388 10.46 14.7692 10.4286 14.6957 10.4118C14.6221 10.3949 14.5459 10.3927 14.4713 10.4054C14.1546 10.4555 13.9269 10.7388 13.9714 11.0499C14.0214 11.3555 14.3158 11.5611 14.638 11.5166H14.6325ZM9.36025 11.3054C9.54916 11.3054 9.70472 11.1499 9.70472 10.9554C9.70472 10.8635 9.66855 10.7754 9.60413 10.7099C9.5397 10.6445 9.45207 10.6069 9.36025 10.6054C9.26743 10.6054 9.17841 10.6424 9.11277 10.708C9.04713 10.7736 9.01025 10.8626 9.01025 10.9554C9.01025 11.1499 9.16581 11.3054 9.36025 11.3054Z" fill="#1C1C1B"/>
</svg>

<svg xmlns="http://www.w3.org/2000/svg" width="24" height="24" fill="none" viewBox="0 0 24 24">
    <path fill="#1C1C1B" d="M14.305 3.389c.444.144 1.06.283 1.483.489a8.85 8.85 0 0 1 4.983 6.5q.5 3.184-1.127 5.96a.21.21 0 0 1-.184.107h-2.378l-.022-.012a.04.04 0 0 1-.016-.044 6.698 6.698 0 0 0-1.917-10.561 6.9 6.9 0 0 0-3.078-.75.05.05 0 0 1-.05-.05V2.25q0-.25.25-.25h1.695c.194 0 .277.094.277.283v1c0 .05.034.084.084.1zM9.682 20.594c-.422-.155-1.038-.288-1.444-.483A8.89 8.89 0 0 1 4.288 7.64a.17.17 0 0 1 .144-.083h2.356a.06.06 0 0 1 .044.033.05.05 0 0 1-.005.055 6.78 6.78 0 0 0-.239 8.578 6.87 6.87 0 0 0 5.3 2.678c.045 0 .111.039.111.089v2.8c0 .055-.05.111-.089.15a.22.22 0 0 1-.15.061h-1.71c-.195 0-.279-.094-.273-.289v-1c0-.05-.056-.1-.095-.111z"/>
    <path fill="#007295" fill-rule="evenodd" d="m16.6 13.111-.89-.106v-.01l.012-.034.016-.011.945-.078a.17.17 0 0 0 .15-.122c.239-.678.405-1.511.277-2.211a2.61 2.61 0 0 0-1.25-1.833 2.62 2.62 0 0 0-2.627.005 2.64 2.64 0 0 0-1.29 2.267 2.578 2.578 0 0 1-5.033.789 2 2 0 0 0-.06-.167q-.108-.226-.056.022a5.4 5.4 0 0 0 2.005 3.495.1.1 0 0 1 .011.055l-.144 1.245c-.022.189.056.3.244.333.39.072.817.122 1.278.167.361.022.372-.384.378-.661v-.106c.011-.122.072-.167.194-.139l.1.028c.09.022.14.078.14.172v.134c-.012.244-.023.56.294.566h1.367a.24.24 0 0 0 .238-.244v-.445c0-.1.056-.16.145-.178l.183-.038q.124-.017.15.1l.14.638a.23.23 0 0 0 .194.184.2.2 0 0 0 .094-.006l1.361-.378a.24.24 0 0 0 .167-.283l-.25-1.039a.16.16 0 0 1 .055-.166 4.9 4.9 0 0 0 1.517-1.89q0-.015-.007-.028a.1.1 0 0 0-.02-.021.1.1 0 0 0-.029-.006m-1.279-1.389a1.093 1.093 0 0 0-.169-1.674 1.1 1.1 0 0 0-.603-.187 1.08 1.08 0 0 0-1.083 1.095 1.094 1.094 0 0 0 1.083 1.088c.29 0 .567-.11.773-.316z" clip-rule="evenodd"/>
    <path fill="#1C1C1B" d="M14.633 11.517c.322-.05.544-.334.5-.64a.57.57 0 0 0-.662-.472c-.316.05-.544.334-.5.645.05.305.345.511.667.467zm-5.273-.212a.35.35 0 0 0 0-.7.35.35 0 0 0 0 .7"/>
</svg>
